X: 35
T:Struan Robertson's Rant
M:C
L:1/8
S:1: AB   /   3: ABAB
R:Strathspey
K:EMinor
e|"Em"E<EG>A B>AB<d|"D"D<DF>E D/E/F/G/ A<F|"Em"E<EG>A B>AB<e|"D"d>Bd
>F "Em"E<EEg|!
"Em"e>fg>e b>eg>e|"D"f>ed>f a/g/f/e/ d<f|"Em"e>fg>e b>eg>e|"Bm"d>BA>F "E
m"E<EEF|!
"Em"G>BE>B G>BE>B|"Bm"F>AD>A F>AD>A|"Em"G>BE>B G>BE>g|"D"f>da>f "Em"e2e>
f|!
"Em"g<be<b g<be<b|"D"f<ad<a f<ad<a|"Em"g<be<b g<ae<f|"D"d/^c/B/A/ d>F "E
m"E<E E||
% <A name="D1X036"></A>

